svg/fluentui-system-icons/ic_fluent_speaker_bluetooth_28_filled.svg

<svg width="28" height="28" viewBox="0 0 28 28" fill="none" xmlns="http://www.w3.org/2000/svg">
<path d="M16.5 4.814C16.5 3.71962 15.1932 3.1536 14.395 3.90219L9.45826 8.53158C9.13388 8.83576 8.70587 9.00505 8.26119 9.00505H5.25C3.45508 9.00505 2 10.4601 2 12.255V15.747C2 17.542 3.45507 18.997 5.25 18.997H8.26174C8.70619 18.997 9.134 19.1662 9.45832 19.4701L14.3953 24.0962C15.1937 24.8443 16.5 24.2782 16.5 23.1841V4.814ZM21.6595 6.24341C21.3644 5.98461 20.9451 5.92244 20.5875 6.08447C20.23 6.24651 20.0003 6.60276 20.0003 6.99532V12.0308L19.6412 11.7316C19.217 11.378 18.5864 11.4353 18.2328 11.8595C17.8792 12.2838 17.9365 12.9144 18.3608 13.268L19.2382 13.9992L18.3611 14.7296C17.9367 15.083 17.8791 15.7136 18.2325 16.138C18.586 16.5624 19.2165 16.62 19.6409 16.2665L20.0003 15.9673V20.9997C20.0003 21.3921 20.2297 21.7482 20.5871 21.9103C20.9444 22.0725 21.3635 22.0107 21.6588 21.7523L25.6588 18.2523C25.8789 18.0596 26.0037 17.7802 26.0002 17.4877C25.9967 17.1952 25.8652 16.9188 25.6405 16.7315L22.3629 13.9999L25.6402 11.2709C25.8649 11.0838 25.9965 10.8076 26.0002 10.5152C26.0039 10.2228 25.8794 9.94337 25.6595 9.75056L21.6595 6.24341ZM23.4605 17.5182L22.0003 18.7959V16.3012L23.4605 17.5182ZM22.0003 9.20205L23.4611 10.4829L22.0003 11.6993V9.20205Z" fill="#212121"/>
</svg>

<svg xmlns="http://www.w3.org/2000/svg" width="28" height="28"><path d="M16.5 4.814c0-1.094-1.307-1.66-2.105-.912l-4.937 4.63a1.75 1.75 0 0 1-1.197.473H5.25A3.25 3.25 0 0 0 2 12.255v3.492a3.25 3.25 0 0 0 3.25 3.25h3.012c.444 0 .872.17 1.196.473l4.937 4.626c.799.748 2.105.182 2.105-.912V4.814Zm5.16 1.43a1 1 0 0 0-1.66.751v5.036l-.359-.3a1 1 0 1 0-1.28 1.537l.877.731-.877.73a1 1 0 0 0 1.28 1.538l.36-.3V21a1 1 0 0 0 1.658.752l4-3.5a1 1 0 0 0-.018-1.52L22.363 14l3.277-2.73a1 1 0 0 0 .02-1.52l-4-3.507Zm1.8 11.274L22 18.796V16.3l1.46 1.217ZM22 9.202l1.461 1.28-1.46 1.217V9.202Z"/></svg>
